X:483
T: Es wohnt ein Markgraf (5-79), S. 126
N: P0753
O: Lothringen
S: MERKELBACH-PINCK, Angelika: Verklingende Weisen, Bd 5, Kassel 1962]
R: Liebe, Standesunterschied]
M: 2/4
L: 1/16
K: C
G2 | E2G2E2G2 | AAA2A2
F2 | D2F2D2F2 | G2G2G2
E2 | C4E4 | G2c2B2A2 | B4A4 | G6

@@@ Tune index: 8033
